iu/report-uri.svg

<svg xmlns="http://www.w3.org/2000/svg" xml:space="preserve" style="fill-rule:evenodd;clip-rule:evenodd;stroke-linejoin:round;stroke-miterlimit:2" viewBox="0.1 4.32 23.8 15.36" height="1em" width="1em">
  <path d="M219.2 66.1c-2.8-1.2-5.7-2.1-8.6-2.7-.7-9-3.1-17.5-7-25.2-2.4 5.8-5.7 11.3-9.4 16.5-9.7 13.1-22.2 23.8-35.4 33-26.8 18.3-57.1 31-88.6 39.5-20.3 5.4-41.2 9.1-62.6 10.3 9 14.7 25.2 24.5 43.7 24.5h8.3c29.3-.1 58.6-.2 87.9-.2 15.6 0 31.3.2 46.9.1 10-.1 18.4.1 27.4-4.9 8.5-4.7 15.5-11.8 21-19.7 5.4-7.8 8.2-17 8.2-26.5.1-20.5-12.7-38.2-31.8-44.7Z" style="fill:#e4411f;fill-rule:nonzero" transform="translate(.1 4.32) scale(.09482)"/>
  <path d="M66.6 111c30.5-5.4 60.6-15 87.7-30.4 13.5-7.7 26.3-17 36.6-28.6 4.4-5.1 8.2-10.6 11.1-16.7C190.4 14.3 167.8 0 142.1 0c-24.5 0-46.5 12.8-58.8 33-5.1-2.7-10.8-4.1-16.8-4.1-19.5 0-35.4 15.5-36.1 34.8C12.3 71.9 0 90.2 0 110.6c0 1.6.1 3.2.2 4.8 22 1.2 44.4-.5 66.4-4.4Z" style="fill:#7c858e;fill-rule:nonzero" transform="translate(.1 4.32) scale(.09482)"/>
</svg>

<svg version="1.1" xmlns="http://www.w3.org/2000/svg" xml:space="preserve" style="fill-rule:evenodd;clip-rule:evenodd;stroke-linejoin:round;stroke-miterlimit:2" viewBox="0.10 4.32 23.80 15.36" height="1em" width="1em">
  <g transform="matrix(0.0948205,0,0,0.0948205,0.1,4.31953)">
    <g>
      <g>
        <path d="M219.2,66.1C216.4,64.9 213.5,64 210.6,63.4C209.9,54.4 207.5,45.9 203.6,38.2C201.2,44 197.9,49.5 194.2,54.7C184.5,67.8 172,78.5 158.8,87.7C132,106 101.7,118.7 70.2,127.2C49.9,132.6 29,136.3 7.6,137.5C16.6,152.2 32.8,162 51.3,162L59.6,162C88.9,161.9 118.2,161.8 147.5,161.8C163.1,161.8 178.8,162 194.4,161.9C204.4,161.8 212.8,162 221.8,157C230.3,152.3 237.3,145.2 242.8,137.3C248.2,129.5 251,120.3 251,110.8C251.1,90.3 238.3,72.6 219.2,66.1Z" style="fill:rgb(228,65,31);fill-rule:nonzero"/>
        <path d="M66.6,111C97.1,105.6 127.2,96 154.3,80.6C167.8,72.9 180.6,63.6 190.9,52C195.3,46.9 199.1,41.4 202,35.3C190.4,14.3 167.8,0 142.1,0C117.6,0 95.6,12.8 83.3,33C78.2,30.3 72.5,28.9 66.5,28.9C47,28.9 31.1,44.4 30.4,63.7C12.3,71.9 0,90.2 0,110.6C0,112.2 0.1,113.8 0.2,115.4C22.2,116.6 44.6,114.9 66.6,111Z" style="fill:rgb(124,133,142);fill-rule:nonzero"/>
      </g>
    </g>
  </g>
</svg>
